X:52
T:The Wyoming Lassies
R:waltz
C:Paul S. Cranford
O:Cape Breton Island
S:http://www.cranfordpub.com
D:currently unrecorded
B:currently unpublished in book form
Z:psc
H:                                                        copyrights Cranford Publications, SOCAN
L:1/8
Q:300
M:3/4
K:Edor
E3 F GA|B3 E FE|D3 B, FE|D3 F GF|E3 F GA|
[1Bc d2 dc|BA d2 F2|E6:|[2Bc d2 Bg|fe d2 b2 |e4||
|:B2|g3 f ed|e3 B eg|f3 e dA|[1B3 a ba|
g3 f ed|ed B2 (B/c/d)|BA G2 F2 E4:|
[2B4 Be |d3 B AF|B3 A, B,A|G3 A FD |E4|]
